themes/navy/source/img/icon-linux-blue-small.svg

<svg width="24" height="24" viewBox="0 0 24 24" fill="none" xmlns="http://www.w3.org/2000/svg">
<path d="M21.75 11.9998C21.75 17.3847 17.3852 21.75 12.0002 21.75C6.61525 21.75 2.25 17.3847 2.25 11.9998C2.25 6.61513 6.61532 2.25 12.0002 2.25C17.3852 2.25 21.75 6.61506 21.75 11.9998Z" fill="#B4BFF2"/>
<path d="M6.97003 11.9997C6.97003 12.6949 6.41711 13.2587 5.73461 13.2587C5.05292 13.2587 4.5 12.695 4.5 11.9997C4.5 11.3047 5.05292 10.7411 5.73461 10.7411C6.41711 10.7411 6.97003 11.3047 6.97003 11.9997ZM13.9959 18.1207C14.337 18.7223 15.0919 18.9286 15.6826 18.5814C16.2732 18.2337 16.4755 17.4638 16.1345 16.8617C15.7935 16.2596 15.0385 16.0538 14.4479 16.4014C13.8572 16.7491 13.6549 17.5186 13.9959 18.1207ZM16.1345 7.13808C16.4755 6.5359 16.2735 5.76614 15.6825 5.41887C15.0922 5.07126 14.337 5.27753 13.9958 5.87943C13.6548 6.48147 13.8572 7.25117 14.4478 7.59878C15.0385 7.94639 15.7939 7.74012 16.1345 7.13808ZM11.955 8.41006C13.7952 8.41006 15.3051 9.84791 15.4628 11.682L17.25 11.6533C17.1652 10.2905 16.5853 9.06488 15.6917 8.16117C15.2186 8.3472 14.6698 8.32192 14.1963 8.04304C13.7224 7.76416 13.4265 7.29206 13.3482 6.78059C12.9041 6.65763 12.4369 6.59179 11.955 6.59179C11.1099 6.59179 10.311 6.79323 9.60163 7.15155L10.4712 8.74338C10.9219 8.52992 11.4252 8.41006 11.955 8.41006ZM8.43316 11.9997C8.43316 10.7855 9.02505 9.71168 9.93064 9.06239L9.01306 7.49882C7.95017 8.22237 7.15843 9.32607 6.8244 10.6201C7.21969 10.9446 7.47294 11.4419 7.47294 11.9998C7.47294 12.5579 7.21962 13.0553 6.8244 13.3799C7.15843 14.6738 7.95017 15.7775 9.01306 16.5015L9.93064 14.9379C9.02505 14.2881 8.43316 13.2148 8.43316 11.9997ZM11.955 15.59C11.4253 15.59 10.922 15.4702 10.4712 15.2564L9.60163 16.8482C10.311 17.2068 11.1098 17.408 11.955 17.408C12.4368 17.408 12.9041 17.3427 13.3482 17.2195C13.4264 16.7077 13.7224 16.2356 14.1963 15.9572C14.6698 15.6783 15.2186 15.653 15.6917 15.839C16.5853 14.9349 17.1652 13.7092 17.25 12.3465L15.4628 12.3182C15.305 14.1518 13.7952 15.59 11.955 15.59Z" fill="white"/>
</svg>

<svg width="24" height="24" fill="none" xmlns="http://www.w3.org/2000/svg"><path d="M21.75 12c0 5.385-4.365 9.75-9.75 9.75S2.25 17.385 2.25 12 6.615 2.25 12 2.25s9.75 4.365 9.75 9.75z" fill="#B4BFF2"/><path d="M6.97 12c0 .695-.553 1.259-1.235 1.259a1.247 1.247 0 0 1-1.235-1.26c0-.694.553-1.258 1.235-1.258S6.97 11.305 6.97 12zm7.026 6.12a1.223 1.223 0 0 0 1.687.461c.59-.347.793-1.117.451-1.72a1.222 1.222 0 0 0-1.686-.46 1.272 1.272 0 0 0-.452 1.72zm2.138-10.982a1.271 1.271 0 0 0-.452-1.72 1.222 1.222 0 0 0-1.686.461 1.272 1.272 0 0 0 .452 1.72c.59.347 1.346.141 1.686-.46zM11.955 8.41c1.84 0 3.35 1.438 3.508 3.272l1.787-.029a5.438 5.438 0 0 0-1.558-3.492 1.705 1.705 0 0 1-1.496-.118 1.769 1.769 0 0 1-.848-1.262 5.214 5.214 0 0 0-1.393-.19c-.845 0-1.644.202-2.353.56l.87 1.592c.45-.213.953-.333 1.483-.333zM8.433 12c0-1.214.592-2.288 1.498-2.938L9.013 7.5a5.414 5.414 0 0 0-2.189 3.121c.396.325.649.822.649 1.38a1.78 1.78 0 0 1-.649 1.38 5.416 5.416 0 0 0 2.19 3.121l.917-1.563A3.607 3.607 0 0 1 8.433 12zm3.522 3.59c-.53 0-1.033-.12-1.484-.334l-.87 1.592a5.2 5.2 0 0 0 2.354.56c.482 0 .95-.065 1.393-.189.078-.511.374-.983.848-1.262a1.705 1.705 0 0 1 1.496-.118 5.44 5.44 0 0 0 1.558-3.492l-1.787-.029c-.158 1.834-1.668 3.272-3.508 3.272z" fill="#fff"/></svg>
